frontend/public/svg/hand gestures/vibrate.svg

<svg width="160" height="145" viewBox="0 0 160 145" fill="none" xmlns="http://www.w3.org/2000/svg">
<g clip-path="url(#clip0)">
<path d="M140.254 98.3551L140.013 97.7644C137.556 91.713 135.015 85.4548 132.02 79.5405C123.167 62.059 114.042 44.3484 105.218 27.2212C102.627 22.1915 100.036 17.1618 97.4474 12.132C96.5928 10.4094 95.6346 8.74053 94.5772 7.13467C91.9985 3.35089 88.615 1.51318 84.5103 1.67726C80.9096 1.52499 77.7979 2.87964 74.9219 4.28355L72.4934 5.46956C60.7895 11.1797 48.6872 17.0868 36.8587 23.0457C32.7179 25.1322 28.417 27.5953 25.0145 31.4559C23.4996 33.053 22.4302 35.0195 21.913 37.1592C21.3957 39.2988 21.4488 41.5367 22.067 43.6494L22.1864 44.1213C22.3732 44.966 22.6287 45.7939 22.9503 46.597C24.0477 49.1318 25.157 51.6611 26.278 54.185C27.6728 57.3465 29.1147 60.6171 30.4957 63.8449C34.5304 73.4852 39.0877 82.8977 44.1474 92.0418C47.3897 97.8097 50.0137 102.588 52.4061 107.083C54.0876 110.243 55.7437 113.418 57.3996 116.592C60.2107 121.981 63.117 127.553 66.1105 132.962C67.8091 135.893 69.8556 138.608 72.2059 141.047C73.2154 142.18 74.4572 143.082 75.8466 143.691C77.2361 144.3 78.7411 144.603 80.2579 144.577C81.1709 144.574 82.0819 144.486 82.9791 144.315C88.1976 143.33 92.9396 141.122 96.8895 139.089C106.179 134.309 115.276 129.446 123.931 124.634C127.756 122.507 131.498 120.09 135.119 117.753C136.061 117.145 137.005 116.538 137.949 115.932C141.402 113.724 142.799 110.362 142.102 105.941C141.775 103.351 141.156 100.806 140.254 98.3551ZM136.239 108.421C136.314 109.777 135.684 110.857 134.314 111.721C133.071 112.509 131.834 113.302 130.596 114.097C127.271 116.234 123.836 118.444 120.336 120.398C110.665 125.81 102.747 130.039 95.4258 133.709C92.1159 135.264 88.6984 136.58 85.2008 137.647C84.5444 137.865 83.8881 138.085 83.2318 138.303C80.5204 139.217 78.0532 138.426 76.0967 136.015C75.0006 134.666 73.9413 133.268 72.8203 131.787C72.3726 131.196 71.9125 130.589 71.4328 129.961C77.7251 126.39 83.9747 122.703 90.0216 119.137C104.407 110.652 117.999 102.634 132.758 95.6247C134.428 99.5588 135.986 103.825 136.239 108.419V108.421ZM130.312 90.0748C115.774 97.0365 101.858 105.433 88.3984 113.55C82.1337 117.33 75.6583 121.236 69.1809 124.962C68.9682 124.59 68.7687 124.246 68.579 123.919C68.115 123.118 67.714 122.426 67.353 121.72L65.4705 118.039C61.7662 110.799 57.9372 103.312 54.2065 95.9313L51.6435 90.8604C45.2679 78.2495 38.6756 65.2094 32.294 52.3334C31.2938 50.1921 30.4363 47.987 29.727 45.7326C29.4461 44.9049 29.1651 44.0773 28.8737 43.2569C27.6818 39.9358 28.5312 37.0618 31.3292 34.9444C34.1425 32.7509 37.1373 30.8012 40.2816 29.1161C49.6141 24.2789 59.1776 19.5021 68.4267 14.8828L72.733 12.7313C76.1348 11.0308 78.766 9.81777 81.2654 8.79848C82.3936 8.30006 83.6085 8.02466 84.8418 7.98731C87.1074 7.98731 88.8717 9.20541 90.3471 11.7087C93.7555 17.4923 96.9105 23.2399 99.7216 28.7899C106.853 42.869 114.03 57.2231 120.968 71.104L127.038 83.2423C127.81 84.7834 128.544 86.3349 129.321 87.9778C129.641 88.6636 129.971 89.36 130.312 90.0748Z" fill="black"/>
<path d="M45.8748 117.492C44.7589 117.285 43.6238 117.199 42.4894 117.236C41.2857 117.268 40.061 117.356 38.8796 117.442C36.645 117.667 34.3955 117.704 32.1547 117.554C21.289 116.496 14.0858 111.48 10.745 102.646C5.55995 88.9289 7.66605 76.196 17.0123 64.8059C17.135 64.6563 17.2637 64.5092 17.3924 64.3616C17.8168 63.9177 18.1783 63.4177 18.4667 62.8755C18.6638 62.5283 18.758 62.132 18.7383 61.7333C18.7187 61.3344 18.5861 60.9493 18.3559 60.6231C18.1256 60.2969 17.8073 60.0429 17.438 59.8907C17.0688 59.7386 16.664 59.6945 16.2707 59.7639C15.4189 59.8332 14.607 60.1547 13.9387 60.6874C13.5502 61.032 13.1512 61.3719 12.7535 61.7132C11.2104 62.9248 9.82363 64.3232 8.62509 65.8764C1.59437 75.8724 -0.740998 86.9356 1.68351 98.7589C4.32068 111.623 11.8975 119.969 24.2025 123.575C27.1106 124.35 30.0705 124.914 33.0592 125.266C34.3936 125.455 35.7731 125.65 37.116 125.881L37.4357 125.937L37.5124 125.574C37.8977 125.578 38.2842 125.589 38.6701 125.6C39.7776 125.66 40.8881 125.636 41.9919 125.528C43.5739 125.343 45.1238 124.945 46.5994 124.346C47.3576 124.044 47.9891 123.491 48.3888 122.78C48.7884 122.068 48.932 121.241 48.7955 120.436C48.6333 118.851 47.6233 117.833 45.8748 117.492Z" fill="black"/>
<path d="M120.263 0.989503C119.086 0.897241 117.906 1.10311 116.831 1.58808C115.95 2.04161 114.984 3.21054 115.007 4.09726C115.03 4.95049 116.382 5.94546 117.247 6.17387C118.314 6.43083 119.396 6.62072 120.486 6.74232C121.39 6.86243 122.324 6.98577 123.217 7.18923C130.214 8.78676 137.534 10.9343 143.666 15.7873C147.583 18.7496 150.257 23.0622 151.171 27.8868C152.384 34.0413 151.834 39.3432 149.489 44.0984C148.323 46.4612 147.006 48.8037 145.732 51.0694C145.052 52.2784 144.372 53.4874 143.71 54.7062C143.519 55.0593 143.316 55.4104 143.119 55.7615C142.443 56.8643 141.878 58.032 141.435 59.2473C140.961 60.7005 140.312 62.6911 142.445 64.6378L142.647 64.8229L142.869 64.6628C143.395 64.286 143.936 63.9375 144.461 63.6008C145.607 62.9442 146.656 62.1299 147.575 61.1816C151.131 57.1333 155.479 51.6121 157.561 44.7954C161.527 31.8098 159.086 20.9415 150.304 12.4905C143.003 5.46372 133.177 1.70294 120.263 0.989503Z" fill="black"/>
<path d="M126.062 46.7093C125.859 46.9378 125.736 47.2267 125.713 47.5317C125.721 47.7844 125.713 48.06 125.706 48.3396C125.68 49.2966 125.654 50.2863 126.196 50.8107C126.751 51.2316 127.439 51.4383 128.135 51.3929C128.631 51.3981 129.124 51.3161 129.591 51.1507C131.957 50.2515 133.563 48.3495 134.363 45.4977C135.61 41.0615 134.828 35.8056 132.279 31.437C130.897 29.1002 129.056 27.0679 126.866 25.4632C124.677 23.8583 122.185 22.7144 119.54 22.1005C117.85 21.782 116.118 21.7459 114.415 21.9936C114.025 21.9976 113.642 22.0903 113.293 22.2646C112.946 22.4387 112.641 22.6899 112.404 22.9991C111.958 23.66 111.911 24.6005 112.266 25.7951L112.325 25.992L112.528 26.0294C112.993 26.1148 113.438 26.1902 113.868 26.263C114.735 26.4101 115.554 26.5499 116.349 26.7382C121.379 27.9341 125.283 30.9795 127.059 35.0921C127.835 36.9186 128.164 38.9042 128.018 40.8835C127.873 42.8628 127.256 44.7787 126.221 46.4717C126.175 46.5512 126.119 46.6299 126.062 46.7093Z" fill="black"/>
<path d="M28.5813 80.1871C29.0788 79.2722 29.6971 78.1328 28.2893 77.1286C27.5187 76.5786 26.2985 76.2563 24.867 77.844C23.914 78.841 23.1372 79.9929 22.5698 81.2498C19.5506 88.5601 20.3587 95.535 24.9787 101.98C27.7543 105.853 31.5322 107.801 36.5302 107.933H36.5689L36.6077 107.925C36.7849 107.889 37.0107 107.851 37.2706 107.808C38.2512 107.665 39.2187 107.444 40.1644 107.148C40.5239 107.039 40.857 106.857 41.1431 106.613C41.4292 106.369 41.6622 106.069 41.8275 105.732C41.9449 105.467 42.0048 105.182 42.0032 104.892C42.0017 104.604 41.9387 104.318 41.8184 104.055C41.2889 103.168 40.4517 102.505 39.466 102.195C38.9731 102.052 38.4561 102.012 37.9471 102.077C37.5568 102.123 37.1618 102.108 36.7763 102.031L36.1922 101.874C34.5893 101.515 33.0362 100.962 31.5675 100.226C29.1004 98.8422 27.9846 96.2582 27.2186 93.9125C26.4817 91.7138 26.208 89.3857 26.4146 87.0761C26.6212 84.7664 27.3037 82.5244 28.4192 80.491L28.5813 80.1871Z" fill="black"/>
<path d="M107.788 113.473C106.446 113.444 105.145 113.943 104.168 114.864C103.802 115.173 103.501 115.553 103.284 115.979C103.066 116.406 102.934 116.872 102.898 117.35C102.881 117.796 102.953 118.241 103.112 118.658C103.27 119.076 103.512 119.457 103.822 119.778C104.242 120.189 104.741 120.513 105.287 120.73C105.834 120.947 106.418 121.053 107.006 121.043H107.096C108.213 121.065 109.292 120.643 110.098 119.87C110.468 119.501 110.759 119.06 110.955 118.575C111.151 118.09 111.248 117.571 111.238 117.048C111.24 116.12 110.881 115.229 110.237 114.562C109.593 113.895 108.715 113.504 107.788 113.473Z" fill="black"/>
</g>
<defs>
<clipPath id="clip0">
<rect width="158.834" height="144.394" fill="white" transform="translate(0.60083 0.320557)"/>
</clipPath>
</defs>
</svg>

<svg xmlns="http://www.w3.org/2000/svg" width="160" height="145" fill="none" viewBox="0 0 160 145"><g fill="#000" clip-path="url(#a)"><path d="m140.254 98.355-.241-.59c-2.457-6.052-4.998-12.31-7.993-18.225-8.853-17.481-17.978-35.192-26.802-52.319q-3.887-7.545-7.77-15.089a47 47 0 0 0-2.87-4.997c-2.58-3.784-5.963-5.622-10.068-5.458-3.6-.152-6.712 1.203-9.588 2.607L72.493 5.47C60.79 11.18 48.687 17.087 36.86 23.046c-4.141 2.086-8.442 4.55-11.844 8.41a12.58 12.58 0 0 0-2.948 12.193l.12.472c.186.845.442 1.673.763 2.476a881 881 0 0 0 3.328 7.588 945 945 0 0 1 4.218 9.66 288 288 0 0 0 13.651 28.197c3.243 5.768 5.867 10.546 8.26 15.041 1.68 3.16 3.337 6.335 4.993 9.509 2.81 5.389 5.717 10.961 8.71 16.37a42 42 0 0 0 6.096 8.085 10.55 10.55 0 0 0 8.052 3.53 15 15 0 0 0 2.721-.262c5.219-.985 9.96-3.193 13.91-5.226a957 957 0 0 0 27.042-14.455c3.825-2.127 7.567-4.544 11.188-6.881q1.413-.912 2.83-1.821c3.453-2.208 4.85-5.57 4.153-9.991a34.5 34.5 0 0 0-1.848-7.586m-4.015 10.066c.075 1.356-.555 2.436-1.925 3.3q-1.863 1.183-3.718 2.376c-3.325 2.137-6.76 4.347-10.26 6.301-9.671 5.412-17.589 9.641-24.91 13.311a77 77 0 0 1-10.225 3.938l-1.97.656c-2.71.914-5.178.123-7.134-2.288-1.096-1.349-2.156-2.747-3.277-4.228q-.669-.885-1.387-1.826c6.292-3.571 12.542-7.258 18.589-10.824 14.385-8.485 27.977-16.503 42.736-23.512 1.67 3.934 3.228 8.2 3.481 12.794zm-5.927-18.346c-14.538 6.962-28.454 15.358-41.914 23.475-6.264 3.78-12.74 7.686-19.217 11.412-.213-.372-.412-.716-.602-1.043-.464-.801-.865-1.493-1.226-2.199l-1.882-3.681a5085 5085 0 0 1-11.265-22.108l-2.562-5.07c-6.376-12.612-12.968-25.652-19.35-38.528a54 54 0 0 1-2.567-6.6q-.418-1.244-.853-2.476c-1.192-3.321-.343-6.195 2.455-8.313a63 63 0 0 1 8.953-5.828c9.332-4.837 18.896-9.614 28.145-14.233l4.306-2.152c3.402-1.7 6.033-2.913 8.532-3.933a9.6 9.6 0 0 1 3.577-.81c2.265 0 4.03 1.217 5.505 3.72a308 308 0 0 1 9.375 17.082c7.131 14.079 14.308 28.433 21.246 42.314l6.07 12.138a232 232 0 0 1 2.283 4.736c.32.686.65 1.382.991 2.097m-84.438 27.417a15.8 15.8 0 0 0-3.386-.256c-1.203.032-2.428.12-3.61.206a40 40 0 0 1-6.724.112c-10.866-1.058-18.07-6.074-21.41-14.908-5.185-13.717-3.079-26.45 6.267-37.84q.186-.224.38-.444a6.7 6.7 0 0 0 1.075-1.486 2.104 2.104 0 0 0-2.196-3.112 4.3 4.3 0 0 0-2.332.923c-.389.345-.788.685-1.185 1.026a23.7 23.7 0 0 0-4.129 4.163C1.595 75.872-.74 86.936 1.684 98.76c2.637 12.864 10.214 21.21 22.519 24.816a63 63 0 0 0 8.856 1.691c1.335.189 2.714.384 4.057.615l.32.056.076-.363q.579.008 1.158.026a22 22 0 0 0 3.322-.072 17.7 17.7 0 0 0 4.607-1.182 3.57 3.57 0 0 0 2.197-3.91c-.163-1.585-1.173-2.603-2.921-2.944M120.263.99a7 7 0 0 0-3.432.598c-.881.454-1.847 1.623-1.824 2.51.023.852 1.375 1.847 2.24 2.076a26 26 0 0 0 3.239.568c.904.12 1.838.244 2.731.447 6.997 1.598 14.317 3.745 20.449 8.598a19.8 19.8 0 0 1 7.505 12.1c1.213 6.154.663 11.456-1.682 16.211-1.166 2.363-2.483 4.706-3.757 6.971-.68 1.21-1.36 2.418-2.022 3.637-.191.353-.394.704-.591 1.055a19.4 19.4 0 0 0-1.684 3.486c-.474 1.453-1.123 3.444 1.01 5.39l.202.186.222-.16a37 37 0 0 1 1.592-1.062 14 14 0 0 0 3.114-2.42c3.556-4.048 7.904-9.569 9.986-16.386 3.966-12.985 1.525-23.853-7.257-32.305-7.301-7.026-17.127-10.787-30.041-11.5"/><path d="M126.062 46.71a1.4 1.4 0 0 0-.349.822c.008.252 0 .528-.007.808-.026.957-.052 1.946.49 2.47a2.9 2.9 0 0 0 1.939.583c.496.005.989-.077 1.456-.242 2.366-.9 3.972-2.802 4.772-5.653 1.247-4.436.465-9.692-2.084-14.061a20.07 20.07 0 0 0-12.739-9.336 15.6 15.6 0 0 0-5.125-.107 2.57 2.57 0 0 0-2.011 1.005c-.446.661-.493 1.602-.138 2.796l.059.197.203.037c.465.086.91.161 1.34.234.867.147 1.686.287 2.481.475 5.03 1.196 8.934 4.242 10.71 8.354a12.47 12.47 0 0 1-.838 11.38c-.046.08-.102.158-.159.237M28.581 80.187c.498-.915 1.116-2.054-.292-3.058-.77-.55-1.99-.873-3.422.715a12.2 12.2 0 0 0-2.297 3.406c-3.02 7.31-2.211 14.285 2.409 20.73 2.775 3.873 6.553 5.821 11.551 5.953h.039l.039-.008c.177-.036.403-.074.663-.117a19 19 0 0 0 2.893-.66 2.73 2.73 0 0 0 1.663-1.416 2.04 2.04 0 0 0-.009-1.677 4.2 4.2 0 0 0-2.352-1.86 3.75 3.75 0 0 0-1.519-.118 3.7 3.7 0 0 1-1.17-.046l-.585-.157a20.2 20.2 0 0 1-4.625-1.648c-2.467-1.384-3.582-3.968-4.348-6.314a16.8 16.8 0 0 1 1.2-13.421zm79.207 33.286a5.12 5.12 0 0 0-3.62 1.391 3.6 3.6 0 0 0-1.27 2.486 3.32 3.32 0 0 0 .924 2.428 4.44 4.44 0 0 0 3.184 1.265h.09a4.22 4.22 0 0 0 3.002-1.173 3.88 3.88 0 0 0 1.14-2.822 3.567 3.567 0 0 0-3.45-3.575"/></g><defs><clipPath id="a"><path fill="#fff" d="M.6.32h158.835v144.395H.6z"/></clipPath></defs></svg>
